X:2
T:Over The Rainbow (Somewhere)
C:Harold Arlen
L:1/8
M:C
I:linebreak $
K:Eb
"Eb6" E4"Cm" e4 |"Gm" d2 Bc"Cm" d2 e2 |"Ab" E4"Ao" c4 |"Gm" B4"C7" z4 |$"Fm" C4"Db7" A4 |
"Gm" G2 EF"C7" G2 A2 |"Fm" F2 DE"Bb7" F2 G2 |"Eb6" E4"Bb7" z4 :|$"Eb6" GBGB GBGB |
"Fm" ABAB"Bb7" ABAB |"Gm" c4"C7" c4 |"Fm" z4"Bb7" z4 |$"Eb6" GBGB GBGB |"Aø" =Ac=Ac"D7" =AcBc |
"Gm" d4"F#o" c2 de |"Fm" f4"Bb7" B4 ||$"Aø" E4"D7" e4 |"Gm" d2 Bc"Cm" d2 e2 |
"Ab" E4"Ao" c4 |"Gm" B4"C7" z4 |$"Fm" C4"Db7" A4 |"Gm" G2 EF"C7" G2 A2 |"Fm" F2 DE"Bb7" F2 G2 |
"Eb6" E8 |]

